packages/astro-components-stencil/src/icons/assignment-return.svg

<svg xmlns="http://www.w3.org/2000/svg" viewBox="0 0 24 24"><g xmlns="http://www.w3.org/2000/svg" id="assignment-return" fill-rule="nonzero">
            <path d="M19 3h-4.18C14.4 1.84 13.3 1 12 1c-1.3 0-2.4.84-2.82 2H5c-1.1 0-2 .9-2 2v14c0 1.1.9 2 2 2h14c1.1 0 2-.9 2-2V5c0-1.1-.9-2-2-2zm-7 0c.55 0 1 .45 1 1s-.45 1-1 1-1-.45-1-1 .45-1 1-1zm4 12h-4v3l-4.65-4.65c-.2-.2-.2-.51 0-.71L12 8v3h4v4z"/>
        </g></svg>

<svg width="24" height="24" viewBox="0 0 24 24" fill="none" xmlns="http://www.w3.org/2000/svg">
<path fill-rule="evenodd" clip-rule="evenodd" d="M19 3H14.82C14.4 1.84 13.3 1 12 1C10.7 1 9.6 1.84 9.18 3H5C3.9 3 3 3.9 3 5V19C3 20.1 3.9 21 5 21H19C20.1 21 21 20.1 21 19V5C21 3.9 20.1 3 19 3ZM12 3C12.55 3 13 3.45 13 4C13 4.55 12.55 5 12 5C11.45 5 11 4.55 11 4C11 3.45 11.45 3 12 3ZM12 15H16V11H12V8L7.35 12.64C7.15 12.84 7.15 13.15 7.35 13.35L12 18V15Z" fill="black"/>
</svg>
